!!!!SEGMENT: pl-cz--ii-8--001-005_stefani-jozef--requiem-baranku-bozy.krn
!!!cenid: 18xx:1063
!!!COM: Stefani, Józef
!!!COM-rismID: pe30024097
!!!CDT: 1800/04/16-1876/03/19
!!!CNT: Polish
!!!OPR: Requiem
!!!OTL: Baranku Boży
!!!OMV: 005
!!!PDT:
!!!AGN: Sacred; Requiem
!!!YEC: Copyright 2022 Narodowy Instytut Fryderyka Chopina (https://polishscores.org)
!!!YEM: License CC-BY-4.0 (https://creativecommons.org/licenses/by/4.0)
!!!SMS-siglum: PL-CZ
!!!SMS-shelfmark: II-8
!!!SMS-shelfwork: 001-005 M
!!!SMS-variant:
!!!SMS-altvar:
!!!NIFC-rismSourceID: 300001272
!!!NIFC-rismChildID: 300001272
!!!NIFC-islandoraID: pl-cz:33776
!!!URL-pdf-islandora: https://repozytorium.nifc.pl/islandora/object/pl-cz%3A33776/datastream/PDF/view
!!!URL-scan: https://polish.musicsources.pl/pl/lokalizacje/galeria/rekopisy/6808/1 @EN{Scan on Polish Music Sources Website} @PL{Skany w portalu Dziedzictwo Muzyki Polskiej w otwartym dostępie}
!!!IIIF:
!!!ONB-nifc: UWAGA: części Requiem: Racz wiekuisty pokój, Dzień ów dzień – Trąba dziwnym głosem ryknie,
!!!AIN: 1 bass 1 organ 2 soprn 1 tenor
!!!key: c
**kern	**fba	**kern	**kern	**text	**kern	**text	**kern	**text	**kern	**text
*	*	*	*group1	*	*group1	*	*group1	*	*group1	*
*part5	*	*part5	*part4	*	*part3	*	*part2	*	*part1	*
*staff6	*	*staff5	*staff4	*	*staff3	*	*staff2	*	*staff1	*
*>[A,A,A]	*>[A,A,A]	*>[A,A,A]	*>[A,A,A]	*>[A,A,A]	*>[A,A,A]	*>[A,A,A]	*>[A,A,A]	*>[A,A,A]	*>[A,A,A]	*>[A,A,A]
*>A	*>A	*>A	*>A	*>A	*>A	*>A	*>A	*>A	*>A	*>A
*I"Organo.	*	*	*I"Baſso	*	*I"Tenore.	*	*I"Sorpano 2do	*	*I"Sorpano 1mo	*
*I'org	*	*	*I'B	*	*I'T	*	*I'S 2	*	*I'S 1	*
*Iorgan	*	*	*Ibass	*	*Itenor	*	*Isoprn	*	*Isoprn	*
*ICklav	*	*	*ICvox	*	*ICvox	*	*ICvox	*	*ICvox	*
*IGcont	*	*	*IGcoro	*	*IGcoro	*	*IGcoro	*	*IGcoro	*
*clefF4	*	*clefG2	*clefF4	*	*clefC4	*	*clefC1	*	*clefC1	*
*k[b-e-a-]	*	*k[b-e-a-]	*k[b-e-a-]	*	*k[b-a-e-]	*	*k[e-a-b-]	*	*k[e-a-b-]	*
*c:	*	*c:	*c:	*	*c:	*	*c:	*	*c:	*
*M4/4	*	*M4/4	*M4/4	*	*M4/4	*	*M4/4	*	*M4/4	*
*met(c)	*	*met(c)	*met(c)	*	*met(c)	*	*met(c)	*	*met(c)	*
=1	=1	=1	=1	=1	=1	=1	=1	=1	=1	=1
*	*	*	*	*	*2\right	*	*	*	*2\right	*
!	!	!	!	!	!	!	!LO:TX:t=P:problem=przy kluczu błędnie e- f- b-	!	!LO:TX:t=P:problem=przy kluczu błędnie e- f- b-	!
!	!	!LO:TX:a:t=Baranku	!LO:TX:a:t=Baranku	!	!LO:TX:a:t=Baranku	!	!LO:TX:a:t=Baranku	!	!LO:TX:a:t=Baranku Boży	!
!	!	!LO:TX:a:B:t=Largo.	!LO:TX:a:B:t=Largo	!	!LO:TX:a:B:t=Largo.	!	!LO:TX:a:B:t=Largo.	!	!LO:TX:a:B:t=Largo.	!
2C/	.	2g 2e-/	2C/	Ba-	2e-\	Ba-	2e-/	Ba-	2g\	Ba-
4C/	.	4g 4e-/	4C/	-ran-	4e-\	-ran-	4e-/	-ran-	4g\	-ran-
4C/	.	4g 4e-/	4C/	-ku	4e-\	-ku	4e-/	-ku	4g\	-ku
!	!	!	!LO:LB:g=original	!	!	!	!	!	!LO:LB:g=original	!
=2	=2	=2	=2	=2	=2	=2	=2	=2	=2	=2
2BBn/	-7 5 3	2a- 2f 2d/	2BBn/	Bo-	2d\	Bo-	2f/	Bo-	2a-\	Bo-
2C/	5	2g 2e-/	2C/	-ży	2e-\	-żẏ	2e-/	-żẏ	2g\	-żẏ
!	!	!	!	!	!LO:LB:g=original	!	!LO:LB:g=original	!	!	!
=3	=3	=3	=3	=3	=3	=3	=3	=3	=3	=3
2C/	4 2	2f 2d/	4C/	kto-	4d\	któ-	4d/	kto-	4f/	kto-
.	.	.	4C/	-rẏ	4d\	-rẏ	4d/	-rẏ	4f/	-rẏ
4BBn/	6 3	4g 4d/	4BBn/	gła-	4d\	gła-	4d/	gła-	4g/	gła-
4GG/	7 5	4f 4d/	4GG/	-dzisz	4d\	-dzisz	4d/	-dzisz	4f/	-dzisz
=4	=4	=4	=4	=4	=4	=4	=4	=4	=4	=4
2C/	.	2e- 2c/	2C/	grze-	2c\	grze-	2c/	grze-	2e-/	grze-
2BB-X/	6 3	[2g 2d/	2BB-X/	-chẏ	2d\	-chẏ	2d/	-chẏ	2g/	-chẏ
!	!	!	!LO:LB:g=original	!	!	!	!	!	!LO:LB:g=original	!
=5	=5	=5	=5	=5	=5	=5	=5	=5	=5	=5
*	*	*^	*	*	*	*	*	*	*	*
1AA-	.	2g/]	4c\	(2AA-/	Swia-	(4c\	Swia-	1c	Swia-	(>2g/	Swia-
.	.	.	4e-\	.	.	4e-\	.	.	.	.	.
*	*	*	*	*2\right	*	*	*	*	*	*	*
.	.	2f#X/	4d\	2A-\)	.	4d\	.	.	.	2f#X/)	.
.	.	.	4c\	.	.	4c\)	.	.	.	.	.
*	*	*v	*v	*	*	*	*	*	*	*	*
!LO:LB:g=original	!	!LO:LB:g=original	!	!	!LO:LB:g=original	!	!	!	!	!
=6	=6	=6	=6	=6	=6	=6	=6	=6	=6	=6
2GG/	.	2g 2d 2Bn/	2G\	-ta	2Bn\	-ta	2Bn/	-ta	2g/	-ta
2r	.	2r	2r	.	2r	.	2r	.	2r	.
!	!	!	!	!	!	!	!LO:LB:g=original	!	!	!
=7	=7	=7	=7	=7	=7	=7	=7	=7	=7	=7
*2\right	*	*	*	*	*	*	*2\right	*	*	*
2E-\	.	2b- 2g/	2E-\	Daẏ	2B-\	Daẏ	2g\	Daẏ	2b-\	Daẏ
2E-\	.	4b- 4g/	4G\	im	4B-\	jm	4g\	im	4b-\	im
.	.	4b- 4g/	4E-\	spo-	4B-\	spo-	4g\	spo-	4b-\	spo-
!	!	!	!	!	!	!	!	!	!LO:LB:g=original	!
=8	=8	=8	=8	=8	=8	=8	=8	=8	=8	=8
.	.	8qb- 8qg/	.	.	.	.	8qqg/	.	8qqb-/	.
4BB-/	.	2a- 2f/	2BB-/	-czẏ-	2d\	-czẏ-	2f/	-czẏ-	2a-\	-czẏ-
4D/	.	.	.	.	.	.	.	.	.	.
2E-\	.	2g 2e-/	2E-/	-nek	2e-\	-nek	2e-/	-nek	2g\	-nek
!	!	!	!LO:LB:g=original	!	!LO:LB:g=original	!	!	!	!	!
=9	=9	=9	=9	=9	=9	=9	=9	=9	=9	=9
2E-\	.	4cc 4a-/	4E-\	w_nie-	4e-\	w_nie-	4a-\	w_nie-	4cc\	w_nie-
.	.	4b- 4g/	4E-\	-skoń-	4e-\	-skoń-	4g\	-skoń-	4b-\	-skoń-
2E-\	.	4ee- 4cc/	4E-\	-czo-	4e-\	-czo-	4cc\	-czo-	4ee-\	-czo-
.	.	4dd 4b-/	4E-\	-ne	4e-\	-ne	4b-\	-ne	4dd\	-ne
!	!	!	!	!	!	!	!LO:LB:g=original	!	!	!
=10	=10	=10	=10	=10	=10	=10	=10	=10	=10	=10
.	.	8qdd 8qb-/	.	.	.	.	8qqb-/	.	8qqdd/	.
2E-\	.	2cc 2a-/	2E-\	la-	2B-\	La-	2a-\	La-	2cc\	La-
2E-\	.	2b- 2g/	2E-\	-ta	2B-\	-ta	2g\	-ta	2b-\	-ta
!	!	!	!	!	!	!	!	!	!LO:LB:g=original	!
=11	=11	=11	=11	=11	=11	=11	=11	=11	=11	=11
4BB-/	.	2dd 2a- 2f/	(4BB-/	Daẏ	2F/	Dai	2a-\	Daẏ	2dd\	Daẏ
4F/	.	.	4F/)	.	.	.	.	.	.	.
4D/	.	4dd 4a- 4f/	4D/	im	4F/	jm	4a-\	im	4dd\	im
4BB-/	.	4dd 4a- 4f/	4BB-/	spo-	4F/	spo-	4a-\	spo-	4dd\	spo-
!	!	!	!LO:LB:g=original	!	!LO:LB:g=original	!	!	!	!	!
=12	=12	=12	=12	=12	=12	=12	=12	=12	=12	=12
*	*	*^	*	*	*	*	*	*	*	*
*	*	*2\right	*	*	*	*	*	*	*	*	*
2E-\	.	2ee- 2b-	2g\	2E-\	-czẏ-	2E-/	-czẏ-	2g\	-czẏ-	2ee-\	-czẏ-
2A-\	.	2cc 2a-	2e-\	2A-\	-nek	2E-/	-nek	2a-\	-nek	2cc\	-nek
!	!	!	!	!	!	!	!	!LO:LB:g=original	!	!	!
*	*	*v	*v	*	*	*	*	*	*	*	*
=13	=13	=13	=13	=13	=13	=13	=13	=13	=13	=13
2B-\	.	4b- 4g 4e-/	4B-\	w_nie-	4G/	w_nie-	4g/	w_nie-	4b-\	w_nie-
.	.	4a- 4f/	4B-\	-skoń-	4A-/	-skoń-	4f/	-skoń-	4a-\	-skoń-
2BB-/	.	4g 4e-/	4BB-/	-czo-	4B-/	-czo-	4e-/	-czo-	4g\	-czo-
.	.	4f 4d 4A-</	4BB-/	-ne	4A-/	-ne	4d/	-ne	4f\	-ne
!	!	!	!	!	!	!	!	!	!LO:LB:g=original	!
=14	=14	=14	=14	=14	=14	=14	=14	=14	=14	=14
2E-\	.	2f 2d 2A-</	2E-\	La-	2A-/	La-	2d/	La-	2f/	La-
2EE-\	.	2e- 2G</	4E-\	-ta	2G/	-ta.	2e-/	-ta.	2e-/	-ta.
!	!	!LO:TX:b:i:t=Da Capo. \nDwa Razy	!LO:TX:b:i:t=Da Capo 2 razy	!	!LO:TX:b:i:t=Da Capo 2. razy	!	!LO:TX:b:i:t=Da Capo 2do \nRazy	!	!LO:TX:b:i:t=Da Capo 2 Razy.	!
.	.	.	4r	.	.	.	.	.	.	.
==	==	==	==	==	==	==	==	==	==	==
*-	*-	*-	*-	*-	*-	*-	*-	*-	*-	*-
!!!system-decoration: [(g1)]{s5,s6}
!!!RDF**kern: > = above
!!!RDF**kern: < = below
!!!ENC: Marcin Jachim
!!!END: 2020-10-04
!!!ENC: Andrzej Kubiczek
!!!END: 2021-11-07
